X:1
T:My Love She’s but a Lassie Yet [1]
M:2/4
L:1/8
R:Reel
Q:"Vivace"
B:Alexander’s New Scrap Book vol. 6 (c. 1845, No. 855, p. 11)
Z:AK/Fiddler’s Companion
K:D
d/c/|dD FA|dDD (d/c/)|dDFA |eEE (d/c/)|
dDFA|dgfe|{e}(d/c/B/A/) B>c|dDD:|
|:(f/g/)|afgf|fdd (f/g/)|afge|eEE (f/g/)|
afge|fd!fermata!e f/e/|{e}d/c/B/A/ B/e/c/e/|dDD:||

